build/category/BoxesSolid.svg

<svg xmlns="http://www.w3.org/2000/svg" fill="none" viewBox="0 0 24 24" focusable="false"><path d="M0 0H24V24H0z"/><path fill="#74767B" fill-rule="evenodd" d="M9.58088 3.6499L14.4209 3.6499C14.8279 3.6499 15.0949 3.65509 15.2218 3.66546C15.3533 3.6762 15.4447 3.69463 15.496 3.72075C15.5587 3.75271 15.6137 3.79236 15.6611 3.8397C15.7084 3.88705 15.7481 3.94208 15.78 4.00481C15.8061 4.05606 15.8246 4.14746 15.8353 4.27899C15.8457 4.4059 15.8509 4.67287 15.8509 5.0799L15.8509 9.9199C15.8509 10.3269 15.8457 10.5939 15.8353 10.7208C15.8246 10.8524 15.8061 10.9437 15.78 10.995C15.7481 11.0577 15.7084 11.1128 15.6611 11.1601C15.6137 11.2074 15.5587 11.2471 15.496 11.2791C15.4447 11.3052 15.3533 11.3236 15.2218 11.3343C15.0949 11.3447 14.8279 11.3499 14.4209 11.3499L9.58088 11.3499C9.17385 11.3499 8.90688 11.3447 8.77997 11.3343C8.64843 11.3236 8.55704 11.3052 8.50579 11.2791C8.44306 11.2471 8.38802 11.2074 8.34068 11.1601C8.29334 11.1128 8.25368 11.0577 8.22172 10.995C8.19561 10.9437 8.17718 10.8523 8.16643 10.7208C8.15606 10.5939 8.15088 10.3269 8.15088 9.9199L8.15088 5.0799C8.15088 4.67287 8.15606 4.4059 8.16643 4.279C8.17718 4.14746 8.19561 4.05606 8.22173 4.00481C8.25368 3.94208 8.29334 3.88705 8.34068 3.83971C8.38802 3.79236 8.44306 3.75271 8.50578 3.72075C8.55704 3.69463 8.64843 3.6762 8.77997 3.66546C8.90688 3.65509 9.17385 3.6499 9.58088 3.6499ZM10.8705 4.60015L13.1205 4.60015C13.4845 4.60015 13.7705 4.88615 13.7705 5.25015C13.7705 5.61415 13.4845 5.90015 13.1205 5.90015L10.8705 5.90015C10.5065 5.90015 10.2205 5.61415 10.2205 5.25015C10.2205 4.88615 10.5065 4.60015 10.8705 4.60015ZM5.08088 12.6401L9.92088 12.6401C10.3279 12.6401 10.5949 12.6453 10.7218 12.6557C10.8533 12.6664 10.9447 12.6849 10.996 12.711C11.0587 12.7429 11.1137 12.7826 11.1611 12.8299C11.2084 12.8773 11.2481 12.9323 11.28 12.995C11.3061 13.0463 11.3246 13.1377 11.3353 13.2692C11.3457 13.3961 11.3509 13.6631 11.3509 14.0701L11.3509 18.9101C11.3509 19.3172 11.3457 19.5841 11.3353 19.711C11.3246 19.8426 11.3061 19.934 11.28 19.9852C11.2481 20.048 11.2084 20.103 11.1611 20.1503C11.1137 20.1977 11.0587 20.2373 10.996 20.2693C10.9447 20.2954 10.8533 20.3138 10.7218 20.3246C10.5949 20.335 10.3279 20.3401 9.92088 20.3401L5.08088 20.3401C4.67385 20.3401 4.40688 20.335 4.27997 20.3246C4.14843 20.3138 4.05704 20.2954 4.00579 20.2693C3.94306 20.2373 3.88802 20.1977 3.84068 20.1503C3.79335 20.103 3.75368 20.0479 3.72172 19.9852C3.69561 19.934 3.67718 19.8426 3.66643 19.711C3.65606 19.5841 3.65088 19.3172 3.65088 18.9101L3.65088 14.0701C3.65088 13.6631 3.65606 13.3961 3.66643 13.2692C3.67718 13.1377 3.69561 13.0463 3.72172 12.995C3.75367 12.9323 3.7933 12.8773 3.84062 12.83C3.88794 12.7827 3.9431 12.7429 4.00578 12.711C4.05704 12.6849 4.14843 12.6664 4.27997 12.6557C4.40688 12.6453 4.67385 12.6401 5.08088 12.6401ZM18.9209 12.6401L14.0809 12.6401C13.6738 12.6401 13.4069 12.6453 13.28 12.6557C13.1484 12.6664 13.057 12.6849 13.0058 12.711C12.9431 12.7429 12.888 12.7826 12.8407 12.8299C12.7933 12.8773 12.7537 12.9323 12.7217 12.995C12.6956 13.0463 12.6772 13.1377 12.6664 13.2692C12.6561 13.3961 12.6509 13.6631 12.6509 14.0701L12.6509 18.9101C12.6509 19.3172 12.6561 19.5841 12.6664 19.711C12.6772 19.8426 12.6956 19.934 12.7217 19.9852C12.7537 20.048 12.7933 20.103 12.8407 20.1503C12.888 20.1977 12.9431 20.2373 13.0058 20.2693C13.057 20.2954 13.1484 20.3138 13.28 20.3246C13.4069 20.335 13.6739 20.3401 14.0809 20.3401L18.9209 20.3401C19.3279 20.3401 19.5949 20.335 19.7218 20.3246C19.8533 20.3138 19.9447 20.2954 19.996 20.2693C20.0587 20.2373 20.1137 20.1977 20.1611 20.1503C20.2084 20.103 20.2481 20.048 20.28 19.9852C20.3061 19.934 20.3246 19.8426 20.3353 19.711C20.3457 19.5841 20.3509 19.3172 20.3509 18.9101L20.3509 14.0701C20.3509 13.6631 20.3457 13.3961 20.3353 13.2692C20.3246 13.1377 20.3061 13.0463 20.28 12.995C20.2481 12.9323 20.2084 12.8773 20.1611 12.8299C20.1137 12.7826 20.0587 12.7429 19.996 12.711C19.9447 12.6849 19.8533 12.6664 19.7218 12.6557C19.5949 12.6453 19.3279 12.6401 18.9209 12.6401ZM6.37563 13.6001L8.62564 13.6001C8.98963 13.6001 9.27563 13.8861 9.27563 14.2501C9.27563 14.6141 8.98963 14.9001 8.62564 14.9001L6.37563 14.9001C6.01163 14.9001 5.72563 14.6141 5.72563 14.2501C5.72563 13.8861 6.01163 13.6001 6.37563 13.6001ZM17.6256 13.6001L15.3756 13.6001C15.0116 13.6001 14.7256 13.8861 14.7256 14.2501C14.7256 14.6141 15.0116 14.9001 15.3756 14.9001L17.6256 14.9001C17.9896 14.9001 18.2756 14.6141 18.2756 14.2501C18.2756 13.8861 17.9896 13.6001 17.6256 13.6001Z"/></svg>

<svg xmlns="http://www.w3.org/2000/svg" fill="none" viewBox="0 0 24 24" focusable="false"><path fill="#74767B" fill-rule="evenodd" d="M9.58 3.64h4.84c.4 0 .67.01.8.02a.67.67 0 0 1 .44.17c.04.05.08.11.12.17.02.05.04.14.05.27s.02.4.02.8v4.84c0 .41-.01.68-.02.81a1 1 0 0 1-.05.27c-.04.06-.08.12-.12.17a.671.671 0 0 1-.44.17c-.13.01-.4.01-.8.01H9.58c-.41 0-.68 0-.8-.01-.14-.01-.23-.03-.28-.06a.7.7 0 0 1-.16-.11.7.7 0 0 1-.12-.17.7.7 0 0 1-.06-.27c-.01-.13-.01-.4-.01-.81V5.07c0-.4 0-.67.01-.8q.015-.195.06-.27c.03-.06.07-.12.12-.17.04-.04.1-.08.16-.11.05-.03.14-.05.28-.06.12-.01.39-.02.8-.02m1.29.96h2.25c.36 0 .65.28.65.65 0 .36-.29.65-.65.65h-2.25c-.37 0-.65-.29-.65-.65 0-.37.28-.65.65-.65m-5.79 8.04h4.84c.4 0 .67 0 .8.01a.67.67 0 0 1 .44.17c.04.05.08.11.12.17.02.05.04.14.05.27s.02.4.02.81v4.84c0 .4-.01.67-.02.8a1 1 0 0 1-.05.27c-.04.06-.08.12-.12.17a.671.671 0 0 1-.44.17c-.13.01-.4.02-.8.02H5.08c-.41 0-.68-.01-.8-.02-.14-.01-.23-.03-.28-.06a.7.7 0 0 1-.16-.11.7.7 0 0 1-.12-.17.7.7 0 0 1-.06-.27c-.01-.13-.01-.4-.01-.8v-4.84c0-.41 0-.68.01-.81q.015-.195.06-.27c.03-.06.07-.12.12-.16.04-.05.1-.09.16-.12.05-.03.14-.05.28-.06.12-.01.39-.01.8-.01m13.84 0h-4.84c-.41 0-.68 0-.8.01-.14.01-.23.03-.28.06-.06.03-.12.07-.16.12-.05.04-.09.1-.12.16q-.045.075-.06.27c-.01.13-.01.4-.01.81v4.84c0 .4 0 .67.01.8q.015.195.06.27c.03.06.07.12.12.17.04.04.1.08.16.11.05.03.14.05.28.06.12.01.39.02.8.02h4.84c.4 0 .67-.01.8-.02a.67.67 0 0 0 .44-.17c.04-.05.08-.11.12-.17a1 1 0 0 0 .05-.27c.01-.13.02-.4.02-.8v-4.84c0-.41-.01-.68-.02-.81a1 1 0 0 0-.05-.27c-.04-.06-.08-.12-.12-.17a.671.671 0 0 0-.44-.17c-.13-.01-.4-.01-.8-.01m-12.55.96h2.25c.36 0 .65.28.65.65 0 .36-.29.65-.65.65H6.37c-.36 0-.65-.29-.65-.65 0-.37.29-.65.65-.65m11.25 0h-2.25c-.36 0-.65.28-.65.65 0 .36.29.65.65.65h2.25c.36 0 .65-.29.65-.65 0-.37-.29-.65-.65-.65"/></svg>
